findly-builder/apps/searchassist/src/assets/icons/pos-thumb.svg

<svg width="16" height="16" viewBox="0 0 16 16" fill="none" xmlns="http://www.w3.org/2000/svg">
<path fill-rule="evenodd" clip-rule="evenodd" d="M8.54297 0.367229C8.87153 0.105816 9.27396 -0.0164375 9.68657 0.00177059C9.74515 0.00437155 9.80501 0.00957414 9.86359 0.0186778C10.3361 0.0850067 10.7767 0.351622 11.0543 0.733988C11.3307 1.11765 11.4606 1.60016 11.3956 2.08267L11.2988 2.74856C11.2008 3.43136 11.053 4.09724 10.8416 4.74623L10.5156 5.67873L12.8792 5.66182C13.5147 5.66182 14.1018 5.94534 14.5093 6.44476C14.9168 6.92727 15.0798 7.57625 14.9665 8.22523L13.9222 14.2182C13.7427 15.2509 12.8627 16 11.8362 16H6.97912C6.19592 16 5.42927 15.866 4.7123 15.5838C4.45123 15.4837 4.32133 15.2002 4.41939 14.9348C4.51745 14.6682 4.7938 14.5343 5.05487 14.6344C5.67379 14.8672 6.32709 14.9843 6.97912 14.9843H11.8528C12.4068 14.9843 12.8792 14.5681 12.9773 14.0179L14.0203 8.02495C14.0852 7.692 13.9872 7.34345 13.7758 7.07684C13.5478 6.81022 13.2384 6.66066 12.8958 6.66066H9.84703C9.68402 6.66066 9.53757 6.57742 9.43951 6.44346C9.34145 6.3108 9.32617 6.14433 9.37457 5.99477L9.92854 4.39637C10.1081 3.83063 10.2546 3.21416 10.3361 2.599L10.4341 1.93311C10.4825 1.48311 10.173 1.06693 9.73369 1.0006C9.52102 0.983696 9.30962 1.03442 9.13005 1.16708C8.96705 1.29973 8.85243 1.50002 8.82059 1.71591L8.72254 2.3818C8.39652 4.76313 7.10902 6.89346 5.16948 8.24214C4.94025 8.3917 4.63079 8.34228 4.48434 8.10818C4.33789 7.87538 4.38628 7.55934 4.61551 7.40978C6.32709 6.22757 7.46687 4.34695 7.74449 2.24914L7.84255 1.58326C7.9075 1.10075 8.16856 0.667659 8.54297 0.367229ZM0 8.32754C0 8.04402 0.211401 7.82812 0.489023 7.82812H2.93414C3.21176 7.82812 3.42316 8.04402 3.42316 8.32754V15.4858C3.42316 15.7694 3.21176 15.9853 2.93414 15.9853H0.489023C0.211401 15.9853 0 15.7694 0 15.4858C0 15.2023 0.211401 14.9864 0.489023 14.9864H2.44511V8.82696H0.489023C0.211401 8.82696 0 8.61106 0 8.32754Z" fill="#28A745"/>
</svg>

<svg width="16" height="16" fill="none" xmlns="http://www.w3.org/2000/svg"><path fill-rule="evenodd" clip-rule="evenodd" d="M8.543.367A1.7 1.7 0 0 1 9.863.02a1.8 1.8 0 0 1 1.191.715c.277.384.407.866.342 1.349l-.097.666a11.877 11.877 0 0 1-.457 1.997l-.326.933 2.363-.017c.636 0 1.223.283 1.63.783.408.482.57 1.131.457 1.78l-1.044 5.993A2.129 2.129 0 0 1 11.836 16H6.98a6.17 6.17 0 0 1-2.267-.416.502.502 0 0 1-.293-.65.486.486 0 0 1 .636-.3 5.47 5.47 0 0 0 1.924.35h4.874c.554 0 1.026-.416 1.124-.966l1.043-5.993a1.178 1.178 0 0 0-.244-.948 1.143 1.143 0 0 0-.88-.416h-3.05a.506.506 0 0 1-.472-.666l.554-1.599c.18-.565.326-1.182.407-1.797l.098-.666a.847.847 0 0 0-.7-.932.883.883 0 0 0-.604.166.882.882 0 0 0-.31.549l-.097.666c-.326 2.381-1.614 4.511-3.554 5.86a.487.487 0 0 1-.685-.134c-.146-.233-.098-.549.132-.698 1.711-1.182 2.85-3.063 3.128-5.16l.099-.667c.064-.482.326-.915.7-1.216ZM0 8.327c0-.283.211-.499.489-.499h2.445c.278 0 .49.216.49.5v7.158c0 .283-.212.5-.49.5H.49a.485.485 0 0 1-.489-.5c0-.284.211-.5.489-.5h1.956V8.827H.49a.485.485 0 0 1-.489-.5Z" fill="#28A745"/></svg>
